fs/new_24_filled.svg

<svg viewBox="0 0 24 24" fill="none" xmlns="http://www.w3.org/2000/svg" height="1em" width="1em">
  <path d="M18 4C18.5523 4 19 4.44772 19 5V13C19 13.5523 18.5523 14 18 14C17.4477 14 17 13.5523 17 13V5C17 4.44772 17.4477 4 18 4ZM4 18C4 17.4477 4.44772 17 5 17H13C13.5523 17 14 17.4477 14 18C14 18.5523 13.5523 19 13 19H5C4.44772 19 4 18.5523 4 18ZM7.70711 6.29289C7.31658 5.90237 6.68342 5.90237 6.29289 6.29289C5.90237 6.68342 5.90237 7.31658 6.29289 7.70711L13.2929 14.7071C13.6834 15.0976 14.3166 15.0976 14.7071 14.7071C15.0976 14.3166 15.0976 13.6834 14.7071 13.2929L7.70711 6.29289Z" fill="#212121"/>
</svg>

<svg viewBox="0 0 24 24" fill="none" xmlns="http://www.w3.org/2000/svg" height="1em" width="1em">
  <path d="M18 4a1 1 0 0 1 1 1v8a1 1 0 1 1-2 0V5a1 1 0 0 1 1-1ZM4 18a1 1 0 0 1 1-1h8a1 1 0 1 1 0 2H5a1 1 0 0 1-1-1ZM7.707 6.293a1 1 0 0 0-1.414 1.414l7 7a1 1 0 0 0 1.414-1.414l-7-7Z" fill="#212121"/>
</svg>
